svgs/sharp-light/reel.svg

<svg xmlns="http://www.w3.org/2000/svg" viewBox="0 0 448 512"><!--! Font Awesome Pro 6.6.0 by @fontawesome - https://fontawesome.com License - https://fontawesome.com/license (Commercial License) Copyright 2024 Fonticons, Inc. --><path d="M0 0L16 0 80 0 368 0l64 0 16 0 0 32-16 0-48 0 0 64 0 16-16 0L80 112l-16 0 0-16 0-64L16 32 0 32 0 0zM96 32l0 48 256 0 0-48L96 32zM64 144l16 0 288 0 16 0 0 32-16 0L80 176l-16 0 0-32zm0 64l16 0 352 0 16 0 0 32-16 0L80 240l-16 0 0-32zm0 64l16 0 288 0 16 0 0 32-16 0L80 304l-16 0 0-32zm0 64l16 0 288 0 16 0 0 32-16 0L80 368l-16 0 0-32zM16 512L0 512l0-32 16 0 48 0 0-64 0-16 16 0 288 0 16 0 0 16 0 64 48 0 16 0 0 32-16 0-64 0L80 512l-64 0zm80-80l0 48 256 0 0-48L96 432z"/></svg>

<svg xmlns="http://www.w3.org/2000/svg" viewBox="0 0 448 512"><!--! Font Awesome Pro 6.4.0 by @fontawesome - https://fontawesome.com License - https://fontawesome.com/license (Commercial License) Copyright 2023 Fonticons, Inc. --><path d="M0 0H16 80 368h64 16V32H432 384V96v16H368 80 64V96 32H16 0V0zM96 32V80H352V32H96zM64 144H80 368h16v32H368 80 64V144zm0 64H80 432h16v32H432 80 64V208zm0 64H80 368h16v32H368 80 64V272zm0 64H80 368h16v32H368 80 64V336zM16 512H0V480H16 64V416 400H80 368h16v16 64h48 16v32H432 368 80 16zm80-80v48H352V432H96z"/></svg>
